Increase/img/features/03.svg

<svg width="22" height="20" viewBox="0 0 22 20" fill="none" xmlns="http://www.w3.org/2000/svg">
<path fill-rule="evenodd" clip-rule="evenodd" d="M0.75 0.75H21.0044V14.75H9.51777L4.97486 19.2929L3.39282 14.75H0.75V0.75ZM3.25 3.25V12.25H5.16947L6.02514 14.7071L8.48223 12.25H18.5044V3.25H3.25Z" fill="#4074F8"/>
</svg>

<svg width="22" height="20" fill="none" xmlns="http://www.w3.org/2000/svg"><path fill-rule="evenodd" clip-rule="evenodd" d="M.75.75h20.254v14H9.518l-4.543 4.543-1.582-4.543H.75v-14zm2.5 2.5v9h1.92l.855 2.457 2.457-2.457h10.022v-9H3.25z" fill="#4074F8"/></svg>
